www/assets/images/test_icons/flags/ZA.svg

<svg fill="none" height="15" viewBox="0 0 21 15" width="21" xmlns="http://www.w3.org/2000/svg" xmlns:xlink="http://www.w3.org/1999/xlink"><mask id="a" height="15" maskUnits="userSpaceOnUse" width="21" x="0" y="0"><path d="m19 0h-17c-1.10457 0-2 .89543-2 2v11c0 1.1046.89543 2 2 2h17c1.1046 0 2-.8954 2-2v-11c0-1.10457-.8954-2-2-2z" fill="#fff"/></mask><g mask="url(#a)"><path d="m19 0h-17c-1.10457 0-2 .89543-2 2v11c0 1.1046.89543 2 2 2h17c1.1046 0 2-.8954 2-2v-11c0-1.10457-.8954-2-2-2z" fill="#fff"/><g clip-rule="evenodd" fill-rule="evenodd"><path d="m0 10h21v5h-21z" fill="#02269f"/><path d="m0 0h21v5h-21z" fill="#e24038"/><path d="m8.013 10-6.013 5.033h-2v-15.033h2l6 5h13v5z" fill="#fff"/><path d="m7.7 9-7.2 6-.5.033v-15.033h.5l7.2 6h13.3v3z" fill="#008557"/><path d="m0 3 6 4.5-6 4.5z" fill="#ffbe0f"/><path d="m0 4 4.75 3.5-4.75 3.5z" fill="#000"/></g><path d="m19 .5h-17c-.82843 0-1.5.67157-1.5 1.5v11c0 .8284.67157 1.5 1.5 1.5h17c.8284 0 1.5-.6716 1.5-1.5v-11c0-.82843-.6716-1.5-1.5-1.5z" stroke="#000" stroke-opacity=".1"/></g></svg>

<svg width="21" height="15" viewBox="0 0 21 15" fill="none" xmlns="http://www.w3.org/2000/svg">
<mask id="mask0_3_8" style="mask-type:alpha" maskUnits="userSpaceOnUse" x="0" y="0" width="21" height="15">
<path d="M19 0H2C0.89543 0 0 0.89543 0 2V13C0 14.1046 0.89543 15 2 15H19C20.1046 15 21 14.1046 21 13V2C21 0.89543 20.1046 0 19 0Z" fill="white"/>
</mask>
<g mask="url(#mask0_3_8)">
<path d="M19 0H2C0.89543 0 0 0.89543 0 2V13C0 14.1046 0.89543 15 2 15H19C20.1046 15 21 14.1046 21 13V2C21 0.89543 20.1046 0 19 0Z" fill="white"/>
<path fill-rule="evenodd" clip-rule="evenodd" d="M0 10H21V15H0V10Z" fill="#02269F"/>
<path fill-rule="evenodd" clip-rule="evenodd" d="M0 0H21V5H0V0Z" fill="#E24038"/>
<path fill-rule="evenodd" clip-rule="evenodd" d="M8.013 10L2 15.033H0V0H2L8 5H21V10H8.013Z" fill="white"/>
<path fill-rule="evenodd" clip-rule="evenodd" d="M7.7 9L0.5 15L0 15.033V0H0.5L7.7 6H21V9H7.7Z" fill="#008557"/>
<path fill-rule="evenodd" clip-rule="evenodd" d="M0 3L6 7.5L0 12V3Z" fill="#FFBE0F"/>
<path fill-rule="evenodd" clip-rule="evenodd" d="M0 4L4.75 7.5L0 11V4Z" fill="black"/>
<path d="M19 0.5H2C1.17157 0.5 0.5 1.17157 0.5 2V13C0.5 13.8284 1.17157 14.5 2 14.5H19C19.8284 14.5 20.5 13.8284 20.5 13V2C20.5 1.17157 19.8284 0.5 19 0.5Z" stroke="black" stroke-opacity="0.1"/>
</g>
</svg>
